; generated by Slic3r 1.36.2-prusa3d-stable-win64 on 2017-09-11 at 21:29:12

; 

; external perimeters extrusion width = 0.60mm
; perimeters extrusion width = 0.43mm
; infill extrusion width = 0.70mm
; solid infill extrusion width = 0.70mm
; top infill extrusion width = 0.43mm
; support material extrusion width = 0.35mm
; first layer extrusion width = 0.42mm

M107
M115 U3.0.12 ; tell printer latest fw version
M83  ; extruder relative mode
M104 S215 ; set extruder temp
M140 S55 ; set bed temp
M190 S55 ; wait for bed temp
M109 S215 ; wait for extruder temp
G28 W ; home all without mesh bed level
G80 ; mesh bed leveling
G1 Y-3.0 F1000.0 ; go outside pritn area
G1 X60.0 E9.0  F1000.0 ; intro line
G1 X100.0 E12.5  F1000.0 ; intro line
; Filament gcode

G21 ; set units to millimeters
G90 ; use absolute coordinates
M83 ; use relative distances for extrusion
G1 E-0.80000 F2100.00000
G1 Z0.200 F7200.000
G1 X0.116 Y49.076 F7200.000
G1 E0.80000 F2100.00000
M204 S1000
G1 F2100
G1 X1.025 Y48.741 E0.02913
G1 X48.370 Y41.892 E1.43898
G1 X193.127 Y41.890 E4.35426
G1 X240.835 Y48.748 E1.44980
G1 X241.413 Y48.922 E0.01817
G1 X241.932 Y49.239 E0.01828
G1 X242.351 Y49.674 E0.01817
G1 X242.648 Y50.204 E0.01828
G1 X247.342 Y69.173 E0.58778
G1 X247.345 Y145.892 E2.30769
G1 X247.272 Y146.464 E0.01737
G1 X243.181 Y162.302 E0.49204
G1 X242.794 Y163.070 E0.02587
G1 X242.159 Y163.650 E0.02587
G1 X241.651 Y163.890 E0.01692
G1 X241.100 Y164.003 E0.01692
G1 X129.001 Y173.105 E3.38301
G1 X112.150 Y173.111 E0.50687
G1 X1.165 Y164.172 E3.34924
G1 X0.629 Y164.061 E0.01646
G1 X0.132 Y163.831 E0.01646
G1 X-0.298 Y163.493 E0.01646
G1 X-0.640 Y163.066 E0.01646
G1 X-0.909 Y162.463 E0.01987
G1 X-1.002 Y161.812 E0.01976
G1 X-1.002 Y51.077 E3.33091
G1 X-0.924 Y50.486 E0.01794
G1 X-0.700 Y49.933 E0.01794
G1 X-0.346 Y49.453 E0.01794
G1 X0.069 Y49.114 E0.01614
G1 F5760
G1 X1.025 Y48.741 E-0.35509
G1 F5760
G1 X2.182 Y48.574 E-0.40491
G1 E-0.04000 F2100.00000
G1 X3.637 Y56.192 F7200.000
G1 E0.80000 F2100.00000
G1 F2100
G1 X3.637 Y156.411 E2.43124
G1 X4.112 Y156.411 E0.01152
G1 X4.112 Y56.316 E2.42824
G1 X4.587 Y56.316 E0.01152
G1 X4.587 Y156.411 E2.42824
G1 X5.062 Y156.411 E0.01152
G1 X5.062 Y56.316 E2.42824
G1 X5.537 Y56.316 E0.01152
G1 X5.537 Y156.411 E2.42824
G1 X6.012 Y156.411 E0.01152
G1 X6.012 Y56.316 E2.42824
G1 X6.487 Y56.316 E0.01152
G1 X6.487 Y156.411 E2.42824
G1 X6.961 Y156.411 E0.01152
G1 X6.961 Y56.316 E2.42824
G1 X7.436 Y56.316 E0.01152
G1 X7.436 Y156.411 E2.42824
G1 X7.911 Y156.411 E0.01152
G1 X7.911 Y56.316 E2.42824
G1 X8.386 Y56.316 E0.01152
G1 X8.386 Y156.411 E2.42824
G1 X8.861 Y156.411 E0.01152
G1 X8.861 Y56.316 E2.42824
G1 X9.336 Y56.316 E0.01152
G1 X9.336 Y156.411 E2.42824
G1 X9.811 Y156.411 E0.01152
G1 X9.811 Y56.316 E2.42824
G1 X10.286 Y56.316 E0.01152
G1 X10.286 Y156.411 E2.42824
G1 X10.761 Y156.411 E0.01152
G1 X10.761 Y56.316 E2.42824
G1 X11.235 Y56.316 E0.01152
G1 X11.235 Y156.411 E2.42824
G1 X11.710 Y156.411 E0.01152
G1 X11.710 Y56.316 E2.42824
G1 X12.185 Y56.316 E0.01152
G1 X12.185 Y156.411 E2.42824
G1 X12.660 Y156.411 E0.01152
G1 X12.660 Y56.316 E2.42824
G1 X13.135 Y56.316 E0.01152
G1 X13.135 Y156.411 E2.42824
G1 X13.610 Y156.411 E0.01152
G1 X13.610 Y56.316 E2.42824
G1 X14.085 Y56.316 E0.01152
G1 X14.085 Y156.411 E2.42824
G1 X14.560 Y156.411 E0.01152
G1 X14.560 Y56.316 E2.42824
G1 X15.035 Y56.316 E0.01152
G1 X15.035 Y156.411 E2.42824
G1 X15.509 Y156.411 E0.01152
G1 X15.509 Y56.316 E2.42824
G1 X15.984 Y56.316 E0.01152
G1 X15.984 Y156.535 E2.43124
G1 F5760
G1 X15.984 Y154.340 E-0.76000
G1 E-0.04000 F2100.00000
G1 X18.359 Y156.535 F7200.000
G1 E0.80000 F2100.00000
G1 F2100
G1 X18.359 Y146.143 E0.25210
G1 X17.884 Y146.143 E0.01152
G1 X17.884 Y156.411 E0.24909
G1 X17.409 Y156.411 E0.01152
G1 X17.409 Y146.143 E0.24909
G1 X16.934 Y146.143 E0.01152
G1 X16.934 Y156.411 E0.24909
G1 X16.459 Y156.411 E0.01152
G1 X16.459 Y146.098 E0.25017
G1 X16.212 Y145.852 E0.00847
G1 X16.212 Y144.121 E0.04198
G1 X16.459 Y143.874 E0.00847
G1 X16.459 Y126.103 E0.43111
G1 X16.504 Y126.148 E0.00153
G1 X16.934 Y126.148 E0.01044
G1 X16.934 Y143.830 E0.42895
G1 X17.409 Y143.830 E0.01152
G1 X17.409 Y126.148 E0.42895
G1 X17.884 Y126.148 E0.01152
G1 X17.884 Y143.830 E0.42895
G1 X18.359 Y143.830 E0.01152
G1 X18.359 Y126.148 E0.42895
G1 X18.834 Y126.148 E0.01152
G1 X18.834 Y156.535 E0.73716
G1 F5760
G1 X18.834 Y154.340 E-0.76000
G1 E-0.04000 F2100.00000
G1 X32.605 Y156.535 F7200.000
G1 E0.80000 F2100.00000
G1 F2100
G1 X32.605 Y56.316 E2.43124
G1 X32.131 Y56.316 E0.01152
G1 X32.131 Y156.411 E2.42824
G1 X31.656 Y156.411 E0.01152
G1 X31.656 Y56.316 E2.42824
G1 X31.181 Y56.316 E0.01152
G1 X31.181 Y156.411 E2.42824
G1 X30.706 Y156.411 E0.01152
G1 X30.706 Y147.751 E0.21008
G1 X30.557 Y147.845 E0.00428
G1 X30.231 Y147.773 E0.00809
G1 X30.231 Y156.411 E0.20955
G1 X29.756 Y156.411 E0.01152
G1 X29.756 Y147.668 E0.21211
G1 X29.281 Y147.562 E0.01180
G1 X29.281 Y156.411 E0.21467
G1 X28.806 Y156.411 E0.01152
G1 X28.806 Y146.241 E0.24671
G1 X28.459 Y146.158 E0.00867
G1 X28.331 Y146.150 E0.00310
G1 X28.331 Y156.411 E0.24893
G1 X27.857 Y156.411 E0.01152
G1 X27.857 Y146.143 E0.24910
G1 X27.382 Y146.143 E0.01152
G1 X27.382 Y156.411 E0.24909
G1 X26.907 Y156.411 E0.01152
G1 X26.907 Y146.143 E0.24909
G1 X26.432 Y146.143 E0.01152
G1 X26.432 Y156.411 E0.24909
G1 X25.957 Y156.411 E0.01152
G1 X25.957 Y146.143 E0.24909
G1 X25.482 Y146.143 E0.01152
G1 X25.482 Y156.411 E0.24909
G1 X25.007 Y156.411 E0.01152
G1 X25.007 Y146.143 E0.24909
G1 X24.532 Y146.143 E0.01152
G1 X24.532 Y156.411 E0.24909
G1 X24.057 Y156.411 E0.01152
G1 X24.057 Y146.143 E0.24909
G1 X23.583 Y146.143 E0.01152
G1 X23.583 Y156.411 E0.24909
G1 X23.108 Y156.411 E0.01152
G1 X23.108 Y146.143 E0.24909
G1 X22.633 Y146.143 E0.01152
G1 X22.633 Y156.411 E0.24909
G1 X22.158 Y156.411 E0.01152
G1 X22.158 Y146.143 E0.24909
G1 X21.683 Y146.143 E0.01152
G1 X21.683 Y156.411 E0.24909
G1 X21.208 Y156.411 E0.01152
G1 X21.208 Y146.143 E0.24909
G1 X20.733 Y146.143 E0.01152
G1 X20.733 Y156.411 E0.24909
G1 X20.258 Y156.411 E0.01152
G1 X20.258 Y146.143 E0.24909
G1 X19.783 Y146.143 E0.01152
G1 X19.783 Y156.411 E0.24909
G1 X19.309 Y156.411 E0.01152
G1 X19.309 Y145.989 E0.25283
G1 X19.171 Y145.852 E0.00471
G1 X19.171 Y144.121 E0.04198
G1 X19.309 Y143.984 E0.00471
G1 X19.309 Y140.807 E0.07706
G1 X19.555 Y141.290 E0.01314
G1 X19.783 Y141.633 E0.01000
G1 X19.783 Y143.830 E0.05329
G1 X20.258 Y143.830 E0.01152
G1 X20.258 Y142.150 E0.04075
G1 X20.733 Y142.523 E0.01465
G1 X20.733 Y143.830 E0.03170
G1 X21.208 Y143.830 E0.01152
G1 X21.208 Y142.822 E0.02444
G1 X21.683 Y143.029 E0.01257
G1 X21.683 Y143.830 E0.01942
G1 X22.158 Y143.830 E0.01152
G1 X22.158 Y143.157 E0.01631
G1 X22.633 Y143.231 E0.01166
G1 X22.633 Y143.830 E0.01452
G1 X23.108 Y143.830 E0.01152
G1 X23.108 Y143.264 E0.01373
G1 X23.583 Y143.293 E0.01154
G1 X23.583 Y143.830 E0.01301
G1 X24.057 Y143.830 E0.01152
G1 X24.057 Y143.263 E0.01375
G1 X24.532 Y143.224 E0.01156
G1 X24.532 Y143.830 E0.01469
G1 X25.007 Y143.830 E0.01152
G1 X25.007 Y143.142 E0.01669
G1 X25.307 Y143.067 E0.00751
G1 X25.482 Y143.000 E0.00454
G1 X25.482 Y143.830 E0.02013
G1 X25.957 Y143.830 E0.01152
G1 X25.957 Y142.781 E0.02543
G1 X26.163 Y142.668 E0.00570
G1 X26.432 Y142.487 E0.00788
G1 X26.432 Y143.830 E0.03258
G1 X26.907 Y143.830 E0.01152
G1 X26.907 Y142.161 E0.04049
G1 X27.382 Y141.567 E0.01844
G1 X27.382 Y143.830 E0.05490
G1 X27.857 Y143.830 E0.01152
G1 X27.857 Y140.720 E0.07545
G1 X27.970 Y140.348 E0.00942
G1 X28.042 Y139.968 E0.00940
G1 X28.121 Y139.134 E0.02032
G1 X28.082 Y138.610 E0.01274
G1 X27.993 Y138.076 E0.01313
G1 X27.857 Y137.665 E0.01051
G1 X27.857 Y132.707 E0.12029
G1 X27.661 Y133.124 E0.01118
G1 X27.498 Y133.387 E0.00751
G1 X27.382 Y133.524 E0.00436
G1 X27.382 Y136.728 E0.07772
G1 X27.269 Y136.563 E0.00485
G1 X26.907 Y136.142 E0.01348
G1 X26.907 Y133.960 E0.05293
G1 X26.432 Y134.216 E0.01309
G1 X26.432 Y135.768 E0.03765
G1 X26.057 Y135.526 E0.01083
G1 X25.957 Y135.483 E0.00263
G1 X25.957 Y134.365 E0.02713
G1 X25.482 Y134.445 E0.01168
G1 X25.482 Y135.307 E0.02091
G1 X25.007 Y135.173 E0.01197
G1 X25.007 Y134.482 E0.01677
G1 X24.532 Y134.490 E0.01152
G1 X24.532 Y135.081 E0.01434
G1 X24.057 Y135.031 E0.01158
G1 X24.057 Y134.490 E0.01312
G1 X23.583 Y134.490 E0.01152
G1 X23.583 Y135.015 E0.01274
G1 X23.108 Y135.035 E0.01153
G1 X23.108 Y134.490 E0.01323
G1 X22.633 Y134.490 E0.01152
G1 X22.633 Y135.071 E0.01408
G1 X22.158 Y135.144 E0.01166
G1 X22.158 Y134.490 E0.01585
G1 X21.683 Y134.490 E0.01152
G1 X21.683 Y135.277 E0.01909
G1 X21.208 Y135.492 E0.01264
G1 X21.208 Y134.490 E0.02430
G1 X20.733 Y134.490 E0.01152
G1 X20.733 Y135.787 E0.03146
G1 X20.258 Y136.120 E0.01407
G1 X20.258 Y134.490 E0.03953
G1 X19.783 Y134.490 E0.01152
G1 X19.783 Y136.689 E0.05335
G1 X19.469 Y137.151 E0.01355
G1 X19.309 Y137.479 E0.00886
G1 X19.309 Y134.336 E0.07625
G1 X19.171 Y134.199 E0.00471
G1 X19.171 Y132.468 E0.04198
G1 X19.309 Y132.331 E0.00471
G1 X19.309 Y129.348 E0.07236
G1 X19.463 Y129.502 E0.00529
G1 X19.783 Y129.502 E0.00778
G1 X19.783 Y132.177 E0.06488
G1 X20.258 Y132.177 E0.01152
G1 X20.258 Y129.502 E0.06488
G1 X20.733 Y129.502 E0.01152
G1 X20.733 Y132.177 E0.06488
G1 X21.208 Y132.177 E0.01152
G1 X21.208 Y129.502 E0.06488
G1 X21.683 Y129.502 E0.01152
G1 X21.683 Y132.177 E0.06488
G1 X22.158 Y132.177 E0.01152
G1 X22.158 Y129.502 E0.06488
G1 X22.633 Y129.502 E0.01152
G1 X22.633 Y132.177 E0.06488
G1 X23.108 Y132.177 E0.01152
G1 X23.108 Y129.502 E0.06488
G1 X23.583 Y129.502 E0.01152
G1 X23.583 Y132.177 E0.06488
G1 X24.057 Y132.177 E0.01152
G1 X24.057 Y129.507 E0.06478
G1 X24.532 Y129.536 E0.01154
G1 X24.532 Y132.171 E0.06393
G1 X25.007 Y132.138 E0.01155
G1 X25.007 Y129.640 E0.06061
G1 X25.168 Y129.685 E0.00404
G1 X25.482 Y129.877 E0.00894
G1 X25.482 Y132.027 E0.05216
G1 X25.614 Y131.947 E0.00374
G1 X25.787 Y131.771 E0.00599
G1 X25.939 Y131.464 E0.00831
G1 X25.957 Y131.365 E0.00244
G1 X25.957 Y130.347 E0.02470
G1 F5760
G1 X25.957 Y131.365 E-0.35258
G1 F5760
G1 X25.939 Y131.464 E-0.03477
G1 F5760
G1 X25.787 Y131.771 E-0.11866
G1 F5760
G1 X25.614 Y131.947 E-0.08549
G1 F5760
G1 X25.482 Y132.027 E-0.05335
G1 F5760
G1 X25.482 Y131.694 E-0.11516
G1 E-0.04000 F2100.00000
G1 X27.857 Y130.420 F7200.000
G1 E0.80000 F2100.00000
G1 F2100
G1 X27.857 Y118.238 E0.29553
G1 X27.709 Y118.524 E0.00780
G1 X27.382 Y119.030 E0.01461
G1 X27.382 Y120.465 E0.03483
G1 X26.907 Y120.465 E0.01152
G1 X26.907 Y119.435 E0.02500
G1 X26.710 Y119.568 E0.00577
G1 X26.432 Y119.707 E0.00753
G1 X26.432 Y120.465 E0.01841
G1 X25.957 Y120.465 E0.01152
G1 X25.957 Y119.837 E0.01524
G1 X25.482 Y119.894 E0.01160
G1 X25.482 Y120.465 E0.01387
G1 X25.007 Y120.465 E0.01152
G1 X25.007 Y119.869 E0.01448
G1 X24.757 Y119.827 E0.00615
G1 X24.532 Y119.755 E0.00572
G1 X24.532 Y120.465 E0.01723
G1 X24.057 Y120.465 E0.01152
G1 X24.057 Y119.545 E0.02234
G1 X23.840 Y119.404 E0.00628
G1 X23.583 Y119.201 E0.00795
G1 X23.583 Y120.465 E0.03067
G1 X23.108 Y120.465 E0.01152
G1 X23.108 Y118.617 E0.04484
G1 X22.882 Y118.200 E0.01152
G1 X22.686 Y117.656 E0.01403
G1 X22.633 Y117.417 E0.00593
G1 X22.633 Y120.465 E0.07395
G1 X22.158 Y120.465 E0.01152
G1 X22.158 Y119.594 E0.02115
G1 X21.979 Y119.713 E0.00522
G1 X21.683 Y119.636 E0.00743
G1 X21.683 Y120.465 E0.02011
G1 X21.208 Y120.465 E0.01152
G1 X21.208 Y119.498 E0.02348
G1 X20.973 Y119.413 E0.00606
G1 X20.733 Y119.289 E0.00655
G1 X20.733 Y120.465 E0.02853
G1 X20.258 Y120.465 E0.01152
G1 X20.258 Y119.000 E0.03555
G1 X19.938 Y118.688 E0.01086
G1 X19.783 Y118.499 E0.00592
G1 X19.783 Y120.465 E0.04772
G1 X19.463 Y120.465 E0.00778
G1 X19.309 Y120.620 E0.00529
G1 X19.309 Y117.624 E0.07266
G1 X19.165 Y117.127 E0.01257
G1 X19.064 Y116.651 E0.01179
G1 X19.014 Y116.159 E0.01201
G1 X18.996 Y115.662 E0.01205
G1 X19.008 Y115.220 E0.01073
G1 X19.049 Y114.764 E0.01110
G1 X19.136 Y114.323 E0.01092
G1 X19.252 Y113.901 E0.01061
G1 X19.309 Y113.762 E0.00365
G1 X19.309 Y56.316 E1.39361
G1 X19.783 Y56.316 E0.01152
G1 X19.783 Y112.975 E1.37451
G1 X20.015 Y112.737 E0.00806
G1 X20.258 Y112.572 E0.00713
G1 X20.258 Y56.316 E1.36475
G1 X20.733 Y56.316 E0.01152
G1 X20.733 Y112.347 E1.35928
G1 X21.208 Y112.223 E0.01191
G1 X21.208 Y56.316 E1.35628
G1 X21.683 Y56.316 E0.01152
G1 X21.683 Y112.177 E1.35516
G1 X22.158 Y112.160 E0.01153
G1 X22.158 Y56.316 E1.35475
G1 X22.633 Y56.316 E0.01152
G1 X22.633 Y112.160 E1.35474
G1 X23.108 Y112.160 E0.01152
G1 X23.108 Y56.316 E1.35474
G1 X23.583 Y56.316 E0.01152
G1 X23.583 Y112.160 E1.35474
G1 X24.057 Y112.160 E0.01152
G1 X24.057 Y56.316 E1.35474
G1 X24.532 Y56.316 E0.01152
G1 X24.532 Y112.161 E1.35476
G1 X24.767 Y112.162 E0.00570
G1 X25.007 Y112.158 E0.00582
G1 X25.007 Y56.316 E1.35469
G1 X25.482 Y56.316 E0.01152
G1 X25.482 Y112.146 E1.35439
G1 X25.957 Y112.120 E0.01154
G1 X25.957 Y56.316 E1.35376
G1 X26.432 Y56.316 E0.01152
G1 X26.432 Y112.081 E1.35282
G1 X26.907 Y111.944 E0.01199
G1 X26.907 Y56.316 E1.34949
G1 X27.382 Y56.316 E0.01152
G1 X27.382 Y111.855 E1.34735
G1 F5760
G1 X27.382 Y109.661 E-0.76000
G1 E-0.04000 F2100.00000
G1 X27.382 Y114.048 F7200.000
G1 E0.80000 F2100.00000
G1 F2100
G1 X27.382 Y114.489 E0.01069
G1 F5760
G1 X27.382 Y114.048 E-0.15262
G1 E-0.64738 F2100.00000
G1 X27.857 Y115.629 F7200.000
G1 E0.80000 F2100.00000
G1 F2100
G1 X27.857 Y56.192 E1.44191
G1 F5760
G1 X27.857 Y58.386 E-0.76000
G1 E-0.04000 F2100.00000
G1 X34.980 Y56.192 F7200.000
G1 E0.80000 F2100.00000
G1 F2100
G1 X34.980 Y64.615 E0.20433
G1 X35.153 Y64.308 E0.00854
G1 X35.455 Y63.980 E0.01082
G1 X35.455 Y56.316 E0.18593
G1 X35.930 Y56.316 E0.01152
G1 X35.930 Y63.692 E0.17894
G1 X36.062 Y63.634 E0.00351
G1 X36.405 Y63.542 E0.00860
G1 X36.405 Y56.316 E0.17531
G1 X36.879 Y56.316 E0.01152
G1 X36.879 Y63.562 E0.17580
G1 X37.103 Y63.720 E0.00663
G1 X37.222 Y64.592 E0.02134
G1 X37.354 Y64.277 E0.00828
G1 X37.354 Y56.316 E0.19314
G1 X37.829 Y56.316 E0.01152
G1 X37.829 Y63.688 E0.17884
G1 X37.955 Y63.589 E0.00389
G1 X38.304 Y63.418 E0.00943
G1 X38.304 Y56.316 E0.17229
G1 X38.779 Y56.316 E0.01152
G1 X38.779 Y63.320 E0.16991
G1 X38.991 Y63.309 E0.00515
G1 X39.254 Y63.335 E0.00641
G1 X39.254 Y56.316 E0.17028
G1 X39.729 Y56.316 E0.01152
G1 X39.729 Y63.472 E0.17361
G1 X40.051 Y63.638 E0.00879
G1 X40.204 Y63.758 E0.00472
G1 X40.204 Y56.316 E0.18054
G1 X40.679 Y56.316 E0.01152
G1 X40.679 Y64.546 E0.19965
G1 F5760
G1 X40.679 Y62.351 E-0.76000
G1 E-0.04000 F2100.00000
G1 X39.254 Y66.647 F7200.000
G1 E0.80000 F2100.00000
G1 F2100
G1 X39.254 Y65.340 E0.03170
G1 X39.160 Y65.239 E0.00335
G1 X39.054 Y65.213 E0.00265
G1 X39.013 Y65.237 E0.00116
G1 X38.954 Y65.371 E0.00354
G1 X38.779 Y65.959 E0.01489
G1 X38.779 Y66.866 E0.02201
G1 F5760
G1 X38.779 Y65.959 E-0.31423
G1 F5760
G1 X38.954 Y65.371 E-0.21260
G1 F5760
G1 X39.013 Y65.237 E-0.05061
G1 F5760
G1 X39.054 Y65.213 E-0.01650
G1 F5760
G1 X39.160 Y65.239 E-0.03786
G1 F5760
G1 X39.254 Y65.340 E-0.04788
G1 F5760
G1 X39.254 Y65.572 E-0.08032
G1 E-0.04000 F2100.00000
G1 X38.779 Y68.455 F7200.000
G1 E0.80000 F2100.00000
G1 F2100
G1 X38.779 Y68.626 E0.00415
G1 X38.304 Y68.626 E0.01152
G1 X38.304 Y67.445 E0.02866
G1 X38.053 Y67.836 E0.01127
G1 X37.829 Y68.052 E0.00754
G1 X37.829 Y68.626 E0.01394
G1 X37.354 Y68.626 E0.01152
G1 X37.354 Y68.332 E0.00713
G1 X37.151 Y68.404 E0.00523
G1 X36.879 Y68.449 E0.00668
G1 X36.879 Y68.626 E0.00429
G1 X36.405 Y68.626 E0.01152
G1 X36.405 Y68.441 E0.00449
G1 X36.209 Y68.406 E0.00482
G1 X35.930 Y68.304 E0.00721
G1 X35.930 Y68.626 E0.00781
G1 X35.455 Y68.626 E0.01152
G1 X35.455 Y68.009 E0.01497
G1 X35.151 Y67.679 E0.01089
G1 X34.980 Y67.390 E0.00813
G1 X34.980 Y68.626 E0.02998
G1 X34.505 Y68.626 E0.01152
G1 X34.505 Y56.316 E0.29864
G1 X34.030 Y56.316 E0.01152
G1 X34.030 Y68.626 E0.29864
G1 X33.555 Y68.626 E0.01152
G1 X33.555 Y56.316 E0.29864
G1 X33.080 Y56.316 E0.01152
G1 X33.080 Y68.668 E0.29966
G1 X32.831 Y68.918 E0.00855
G1 X32.831 Y70.209 E0.03132
G1 X33.080 Y70.458 E0.00855
G1 X33.080 Y80.331 E0.23951
G1 X33.199 Y80.120 E0.00586
G1 X33.555 Y80.120 E0.00864
G1 X33.555 Y70.500 E0.23338
G1 X34.030 Y70.500 E0.01152
G1 X34.030 Y80.120 E0.23338
G1 X34.505 Y80.120 E0.01152
G1 X34.505 Y70.500 E0.23338
